X: 7
T: Martin Wynne's
R: reel
M: 4/4
L: 1/8
K: Gmaj
dged B2Ac|BGdG EAAc|BGdB cdeg|gfga gfeB|
dged B2Ac|BGdG EAAc|BGdB cdeg|1fgaf g2fe :|2 fgaf g2ba ||
gfga gfeB|d2ed BGGB|gfga gfeB|dega bgaf|
gbaf gfeB|d2ed BGGB|gfga gfed|1fgaf g2ba :|2fgaf g2fe ||


Tune 461	Setting 13342

